dist/img/icon-reaction-s6.svg

<svg width="20" height="20" viewBox="0 0 20 20" fill="none" xmlns="http://www.w3.org/2000/svg">
<g clip-path="url(#clip0_4689_25629)">
<path d="M19.1373 6.40318C19.5471 6.92597 19.7437 7.48641 19.7186 8.06357C19.6935 8.69929 19.4091 9.19699 19.1749 9.5023C19.4468 10.1798 19.5513 11.2463 18.6438 12.0744C17.9788 12.6809 16.8495 12.9527 15.2853 12.8775C14.1854 12.8273 13.2653 12.6223 13.2276 12.614H13.2234C13.0143 12.5763 12.7926 12.5303 12.5668 12.4801C12.5501 12.7478 12.5961 13.4128 13.0896 14.9101C13.6751 16.6918 13.6417 18.0552 12.9809 18.967C12.2866 19.9247 11.1783 20 10.852 20C10.5384 20 10.2498 19.8703 10.0448 19.632C9.5806 19.0924 9.63497 18.097 9.69352 17.637C9.14145 16.1564 7.59398 12.5261 6.28491 11.5182C6.25981 11.5015 6.2389 11.4806 6.21799 11.4596C5.83321 11.054 5.57391 10.6148 5.39825 10.23C5.15149 10.3639 4.87127 10.4391 4.57014 10.4391H2.01891C1.05697 10.4391 0.279053 9.65705 0.279053 8.69929V1.90297C0.279053 0.941029 1.06115 0.163113 2.01891 0.163113H4.57014C4.94237 0.163113 5.28951 0.280218 5.57391 0.48097L6.55676 0.363865C6.70732 0.342955 9.38403 0.00418472 12.1318 0.0585537C12.6295 0.0209141 13.098 0 13.5329 0C14.2816 0 14.934 0.0585537 15.4777 0.175659C16.7575 0.447512 17.6316 0.991219 18.075 1.79005C18.4137 2.40067 18.4137 3.00711 18.3594 3.39189C19.1916 4.14471 19.338 4.977 19.3087 5.56253C19.292 5.9013 19.2167 6.18988 19.1373 6.40318ZM2.01891 1.29235C1.68014 1.29235 1.40829 1.56838 1.40829 1.90297V8.70347C1.40829 9.04224 1.68432 9.3141 2.01891 9.3141H4.57014C4.90891 9.3141 5.18077 9.03806 5.18077 8.70347V1.90715C5.18077 1.56838 4.90473 1.29653 4.57014 1.29653H2.01891V1.29235ZM18.0666 6.89251C17.8909 6.70849 17.8575 6.42827 17.9913 6.21079C17.9913 6.20661 18.1628 5.91385 18.1837 5.51234C18.213 4.96445 17.9495 4.4793 17.3974 4.06525C17.2008 3.91468 17.1214 3.65537 17.205 3.42116C17.205 3.41698 17.3849 2.86491 17.0921 2.34212C16.8119 1.84023 16.1887 1.48055 15.2435 1.2798C14.4865 1.11669 13.4576 1.08741 12.1946 1.18779C12.1778 1.18779 12.1569 1.18779 12.136 1.18779C9.44676 1.12924 6.72824 1.48055 6.69896 1.48474H6.69478L6.27236 1.53492C6.29745 1.65203 6.31 1.7775 6.31 1.90297V8.70347C6.31 8.88331 6.28073 9.05897 6.23054 9.22208C6.30582 9.5023 6.51494 10.1255 7.00845 10.6566C8.88633 12.1455 10.7224 17.1685 10.8018 17.386C10.8353 17.4739 10.8437 17.5701 10.8269 17.6662C10.7558 18.1347 10.7809 18.7077 10.8813 18.8791C11.103 18.8749 11.7011 18.8122 12.0607 18.3145C12.4873 17.7248 12.4706 16.6708 12.0105 15.2739C11.3079 13.1451 11.2494 12.0243 11.8056 11.5307C12.0816 11.284 12.4497 11.2714 12.7174 11.3676C12.9725 11.4262 13.2151 11.4764 13.4451 11.514C13.4618 11.5182 13.4827 11.5224 13.4995 11.5266C14.7834 11.8068 17.0837 11.9783 17.8826 11.2505C18.5601 10.6315 18.0791 9.8118 18.0248 9.72397C17.87 9.48975 17.916 9.18444 18.1251 8.99624C18.1293 8.99205 18.5685 8.578 18.5894 8.02175C18.6061 7.64952 18.4305 7.26893 18.0666 6.89251Z" fill="#959EA8"/>
</g>
<defs>
<clipPath id="clip0_4689_25629">
<rect width="20" height="20" fill="white" transform="matrix(1 0 0 -1 0 20)"/>
</clipPath>
</defs>
</svg>

<svg xmlns="http://www.w3.org/2000/svg" width="20" height="20" fill="none" viewBox="0 0 20 20"><g clip-path="url(#a)"><path fill="#959EA8" d="M19.137 6.403c.41.523.607 1.083.582 1.66-.026.636-.31 1.134-.544 1.44.272.677.376 1.743-.531 2.571-.665.607-1.794.879-3.359.803-1.1-.05-2.02-.255-2.057-.263h-.005q-.315-.058-.656-.134c-.017.268.03.933.523 2.43.585 1.782.552 3.145-.11 4.057-.693.958-1.802 1.033-2.128 1.033a1.05 1.05 0 0 1-.807-.368c-.464-.54-.41-1.535-.351-1.995-.553-1.48-2.1-5.11-3.41-6.119a.4.4 0 0 1-.066-.058 4.5 4.5 0 0 1-.82-1.23c-.247.134-.527.21-.828.21H2.02c-.962 0-1.74-.783-1.74-1.74V1.902c0-.962.782-1.74 1.74-1.74h2.55c.372 0 .72.117 1.004.318l.983-.117c.15-.021 2.827-.36 5.575-.305Q12.88 0 13.532 0c.75 0 1.402.059 1.946.176 1.28.272 2.154.815 2.597 1.614a2.56 2.56 0 0 1 .284 1.602c.833.753.979 1.585.95 2.17a2.8 2.8 0 0 1-.172.841M2.02 1.293a.61.61 0 0 0-.61.61v6.8c0 .34.275.611.61.611h2.55a.61.61 0 0 0 .61-.61V1.906a.61.61 0 0 0-.61-.61H2.02zm16.048 5.6a.56.56 0 0 1-.076-.682c0-.004.172-.297.193-.699q.042-.824-.787-1.447a.57.57 0 0 1-.192-.644c0-.004.18-.556-.113-1.079-.28-.502-.903-.861-1.848-1.062-.758-.163-1.786-.193-3.05-.092h-.058c-2.69-.059-5.408.293-5.437.297h-.004l-.423.05c.025.117.038.243.038.368v6.8c0 .18-.03.356-.08.52.076.28.285.902.778 1.434 1.878 1.489 3.714 6.512 3.794 6.729a.53.53 0 0 1 .025.28c-.071.469-.046 1.042.054 1.213.222-.004.82-.067 1.18-.565.426-.59.41-1.643-.05-3.04-.703-2.129-.762-3.25-.205-3.743a.91.91 0 0 1 .911-.163q.383.088.728.146c.017.004.038.008.054.013 1.284.28 3.585.451 4.384-.276.677-.62.196-1.44.142-1.527a.56.56 0 0 1 .1-.728c.004-.004.444-.418.464-.974.017-.372-.159-.753-.522-1.13"/></g><defs><clipPath id="a"><path fill="#fff" d="M0 20h20V0H0z"/></clipPath></defs></svg>
